X:103
T:Vevlire-tvåan
R:Slängpolska
Z:Erik Ronström 2008-04-20
O:Fleringe, Gotland
B:Gutalåtar nr 103
M:3/4
L:1/8
K:G
dB cd ec|Bc d2 cG|cB cd ec|c/B/c/d/ B2 G2|
dB cd ec|Bc d2 cG|cB cd ec|c/B/c/d/ G2 z2|
|:EA AB BG|Ad dc BA|GA AB BG|Ad dc Bc|de/d/ cB AG|AB/c/ G2 z2:|

